assets/img/braze_icons/compass.svg

<svg fill="none" height="24" viewBox="0 0 24 24" width="24" xmlns="http://www.w3.org/2000/svg"><path clip-rule="evenodd" d="m13 2c0-.55228-.4477-1-1-1s-1 .44772-1 1v1.14494c-1.44574.43027-2.5 1.76955-2.5 3.35506 0 .9282.36132 1.77201.95098 2.39845l-4.02097 6.92505c-.6122-.4567-1.17539-.9757-1.68026-1.5477-.36546-.4141-.9974-.4535-1.41147-.088-.41407.3654-.45347.9974-.08801 1.4114.6465.7325 1.37453 1.3917 2.1699 1.9634l-2.28504 3.9354c-.27732.4776-.11495 1.0896.36266 1.3669.4776.2773 1.0896.1149 1.36692-.3627l2.26472-3.9003c1.76339.894 3.75829 1.3981 5.87057 1.3981 2.1122 0 4.1071-.5041 5.8705-1.398l2.2646 3.9002c.2774.4776.8893.64 1.367.3627.4776-.2773.6399-.8893.3626-1.3669l-2.285-3.9353c.7954-.5717 1.5235-1.2309 2.1701-1.9635.3654-.414.326-1.046-.0881-1.4114-.414-.3655-1.046-.3261-1.4114.088-.5049.572-1.0682 1.0911-1.6804 1.5477l-4.021-6.92495c.5897-.62645.9511-1.4703.9511-2.39855 0-1.58551-1.0543-2.92479-2.5-3.35506zm-1 8c.2823 0 .5568-.03342.8197-.09652l4.0446 6.96562c-1.4667.7243-3.1178 1.1309-4.8643 1.1309s-3.39772-.4066-4.86439-1.131l4.04449-6.96555c.263.06312.5376.09655.8199.09655z" fill="#801ed7" fill-rule="evenodd"/></svg>

<svg width="24" height="24" viewBox="0 0 24 24" fill="none" xmlns="http://www.w3.org/2000/svg">
<path fill-rule="evenodd" clip-rule="evenodd" d="M13 2C13 1.44772 12.5523 1 12 1C11.4477 1 11 1.44772 11 2V3.14494C9.55426 3.57521 8.5 4.91449 8.5 6.5C8.5 7.4282 8.86132 8.27201 9.45098 8.89845L5.43001 15.8235C4.81781 15.3668 4.25462 14.8478 3.74975 14.2758C3.38429 13.8617 2.75235 13.8223 2.33828 14.1878C1.92421 14.5532 1.88481 15.1852 2.25027 15.5992C2.89677 16.3317 3.6248 16.9909 4.42017 17.5626L2.13513 21.498C1.85781 21.9756 2.02018 22.5876 2.49779 22.8649C2.97539 23.1422 3.58739 22.9798 3.86471 22.5022L6.12943 18.6019C7.89282 19.4959 9.88772 20 12 20C14.1122 20 16.1071 19.4959 17.8705 18.602L20.1351 22.5022C20.4125 22.9798 21.0244 23.1422 21.5021 22.8649C21.9797 22.5876 22.142 21.9756 21.8647 21.498L19.5797 17.5627C20.3751 16.991 21.1032 16.3318 21.7498 15.5992C22.1152 15.1852 22.0758 14.5532 21.6617 14.1878C21.2477 13.8223 20.6157 13.8617 20.2503 14.2758C19.7454 14.8478 19.1821 15.3669 18.5699 15.8235L14.5489 8.89855C15.1386 8.2721 15.5 7.42825 15.5 6.5C15.5 4.91449 14.4457 3.57521 13 3.14494V2ZM12 10C12.2823 10 12.5568 9.96658 12.8197 9.90348L16.8643 16.8691C15.3976 17.5934 13.7465 18 12 18C10.2535 18 8.60228 17.5934 7.13561 16.869L11.1801 9.90345C11.4431 9.96657 11.7177 10 12 10Z" fill="#801ED7"/>
</svg>
